X: 106
T: Meili de sailimu The beautiful Sajram                       (Name)
L: 1/8
M: 6/8
K: C
c c d e> e d [I:setbarnb 1]| 
c> d e G> G G | 
e> e e/ d< c A/ G/ A/ | 
G3-G3 | 
c2AG2D | 
E2DC2C | 
G2A/ c< G E/ D/ E/ | 
C3-C3 | 
c3e3 | 
c> d eG3 | 
e2d c> A G/ A/ | 
G3-G3 | 
c2AG2D | 
E2DC2C | 
G2A/ c< G E/ D/ E/ | 
C3-C3 |]

@@@ Tune index: 8774
